.icons/oomox-ad/32x32/apps/elisa.svg

<svg xmlns="http://www.w3.org/2000/svg" width="32" height="32" version="1.1">
 <path style="fill:#3f3f3f" d="M 3.34096,4 C 2.0441236,4 1.0000001,5.1149 1.0000001,6.4981 V 25.5018 C 1.0000001,26.8851 2.0441236,28 3.34096,28 H 28.65904 C 29.955876,28 31,26.8851 31,25.5018 V 6.4981 C 31,5.1149 29.955876,4 28.65904,4 Z m 6.2304687,8.8235 A 3.2142857,3.1764706 0 0 1 12.785714,16 3.2142857,3.1764706 0 0 1 9.5714287,19.1764 3.2142857,3.1764706 0 0 1 6.357143,16 3.2142857,3.1764706 0 0 1 9.5714287,12.8235 Z m 12.8571423,0 A 3.2142857,3.1764706 0 0 1 25.642857,16 3.2142857,3.1764706 0 0 1 22.428571,19.1764 3.2142857,3.1764706 0 0 1 19.214286,16 3.2142857,3.1764706 0 0 1 22.428571,12.8235 Z"/>
 <path style="fill:#4f4f4f" d="M 3.9999998,28 6.8235286,23 H 25.176471 L 28,28 Z"/>
 <circle style="opacity:0.4" cx="9.5" cy="25.5" r="1.5"/>
 <path style="fill:#1eb5c5" d="M 5.203125 7 C 4.5359414 7 4 7.6468719 4 8.4511719 L 4 13 L 4 20.634766 C 4 21.391766 4.5359414 22 5.203125 22 L 26.796875 22 C 27.464057 22 28 21.391766 28 20.634766 L 28 13 L 28 8.4511719 C 28 7.6468719 27.464057 7 26.796875 7 L 5.203125 7 z M 10 13.5 A 2.5 2.5 0 0 1 12.5 16 A 2.5 2.5 0 0 1 10 18.5 A 2.5 2.5 0 0 1 7.5 16 A 2.5 2.5 0 0 1 10 13.5 z M 22 13.5 A 2.5 2.5 0 0 1 24.5 16 A 2.5 2.5 0 0 1 22 18.5 A 2.5 2.5 0 0 1 19.5 16 A 2.5 2.5 0 0 1 22 13.5 z"/>
 <path style="fill:#3f3f3f" d="m 10,13 a 3,3 0 0 0 -3,3 3,3 0 0 0 3,3 h 12 a 3,3 0 0 0 3,-3 3,3 0 0 0 -3,-3 z m 0,1 a 2,2 0 0 1 2,2 2,2 0 0 1 -2,2 2,2 0 0 1 -2,-2 2,2 0 0 1 2,-2 z m 12,0 a 2,2 0 0 1 2,2 2,2 0 0 1 -2,2 2,2 0 0 1 -2,-2 2,2 0 0 1 2,-2 z"/>
 <rect style="fill:#cccccc" width="6" height="4" x="13" y="14"/>
 <circle style="opacity:0.4" cx="22.5" cy="25.5" r="1.5"/>
 <path style="fill:#874f29" d="m 13,14 v 4 h 2.648438 A 6,6 0 0 0 16,16 6,6 0 0 0 15.650391,14 Z"/>
 <rect style="opacity:0.2" width="6" height="1" x="13" y="14"/>
 <path style="opacity:0.2" d="m 4,20.634766 v 1 C 4,22.391766 4.5359414,23 5.203125,23 h 21.59375 C 27.464057,23 28,22.391766 28,21.634766 v -1 C 28,21.391766 27.464057,22 26.796875,22 H 5.203125 C 4.5359414,22 4,21.391766 4,20.634766 Z"/>
 <path style="opacity:0.1;fill:#ffffff" d="M 6.8242188,23 4,28 H 4.5644531 L 6.8242188,24 H 25.175781 l 2.259766,4 H 28 l -2.824219,-5 z"/>
 <path style="opacity:0.2" d="m 1,25.501953 v 1 C 1,27.885253 2.0449605,29 3.3417969,29 H 28.658203 C 29.955039,29 31,27.885253 31,26.501953 v -1 C 31,26.885253 29.955039,28 28.658203,28 H 3.3417969 C 2.0449605,28 1,26.885253 1,25.501953 Z"/>
 <path style="opacity:0.1;fill:#ffffff" d="M 3.3417969,4 C 2.0449605,4 1,5.1148469 1,6.4980469 v 1 C 1,6.1148469 2.0449605,5 3.3417969,5 H 28.658203 C 29.955039,5 31,6.1148469 31,7.4980469 v -1 C 31,5.1148469 29.955039,4 28.658203,4 Z"/>
 <path style="opacity:0.2" d="M 10,14 A 2,2 0 0 0 8,16 2,2 0 0 0 8.0644531,16.496094 2,2 0 0 1 10,15 2,2 0 0 1 11.935547,16.503906 2,2 0 0 0 12,16 2,2 0 0 0 10,14 Z m 12,0 a 2,2 0 0 0 -2,2 2,2 0 0 0 0.06445,0.496094 A 2,2 0 0 1 22,15 2,2 0 0 1 23.935547,16.503906 2,2 0 0 0 24,16 2,2 0 0 0 22,14 Z"/>
 <path style="opacity:0.2;fill:#ffffff" d="M 5.203125,7 C 4.5359414,7 4,7.6468719 4,8.4511719 v 1 C 4,8.6468719 4.5359414,8 5.203125,8 h 21.59375 C 27.464057,8 28,8.6468719 28,9.4511719 v -1 C 28,7.6468719 27.464057,7 26.796875,7 Z"/>
</svg>

<svg xmlns="http://www.w3.org/2000/svg" width="32" height="32" version="1.1">
 <g transform="translate(0,-1090.5197)">
  <path style="fill:#3f3f3f" d="m 3.34096,1094.5197 c -1.2968364,0 -2.3409599,1.1149 -2.3409599,2.4981 v 19.0037 c 0,1.3833 1.0441235,2.4982 2.3409599,2.4982 h 25.31808 c 1.296836,0 2.34096,-1.1149 2.34096,-2.4982 v -19.0037 c 0,-1.3832 -1.044124,-2.4981 -2.34096,-2.4981 z m 6.2304687,8.8235 a 3.2142857,3.1764706 0 0 1 3.2142853,3.1765 3.2142857,3.1764706 0 0 1 -3.2142853,3.1764 3.2142857,3.1764706 0 0 1 -3.2142857,-3.1764 3.2142857,3.1764706 0 0 1 3.2142857,-3.1765 z m 12.8571423,0 a 3.2142857,3.1764706 0 0 1 3.214286,3.1765 3.2142857,3.1764706 0 0 1 -3.214286,3.1764 3.2142857,3.1764706 0 0 1 -3.214285,-3.1764 3.2142857,3.1764706 0 0 1 3.214285,-3.1765 z"/>
  <path style="fill:#4f4f4f" d="m 3.9999998,1118.5197 2.8235288,-5 H 25.176471 l 2.823529,5 z"/>
  <circle style="opacity:0.4" cx="9.5" cy="1116.02" r="1.5"/>
  <path style="fill:#e4e4e4" transform="translate(0,1090.5197)" d="M 5.203125 7 C 4.5359414 7 4 7.6468719 4 8.4511719 L 4 13 L 28 13 L 28 8.4511719 C 28 7.6468719 27.464057 7 26.796875 7 L 5.203125 7 z"/>
  <path style="fill:#1eb259" transform="translate(0,1090.5197)" d="M 4 13 L 4 20.634766 C 4 21.391766 4.5359414 22 5.203125 22 L 26.796875 22 C 27.464057 22 28 21.391766 28 20.634766 L 28 13 L 4 13 z M 10 13.5 A 2.5 2.5 0 0 1 12.5 16 A 2.5 2.5 0 0 1 10 18.5 A 2.5 2.5 0 0 1 7.5 16 A 2.5 2.5 0 0 1 10 13.5 z M 22 13.5 A 2.5 2.5 0 0 1 24.5 16 A 2.5 2.5 0 0 1 22 18.5 A 2.5 2.5 0 0 1 19.5 16 A 2.5 2.5 0 0 1 22 13.5 z"/>
  <path style="fill:#3f3f3f" transform="translate(0,1090.5197)" d="M 10 13 A 3 3 0 0 0 7 16 A 3 3 0 0 0 10 19 L 22 19 A 3 3 0 0 0 25 16 A 3 3 0 0 0 22 13 L 10 13 z M 10 14 A 2 2 0 0 1 12 16 A 2 2 0 0 1 10 18 A 2 2 0 0 1 8 16 A 2 2 0 0 1 10 14 z M 22 14 A 2 2 0 0 1 24 16 A 2 2 0 0 1 22 18 A 2 2 0 0 1 20 16 A 2 2 0 0 1 22 14 z"/>
  <rect style="fill:#cccccc" width="6" height="4" x="13" y="1104.52"/>
  <circle style="opacity:0.4" cx="22.5" cy="1116.02" r="1.5"/>
  <path style="fill:#874f29" transform="translate(0,1090.5197)" d="M 13 14 L 13 18 L 15.648438 18 A 6 6 0 0 0 16 16 A 6 6 0 0 0 15.650391 14 L 13 14 z"/>
  <rect style="opacity:0.2" width="6" height="1" x="13" y="1104.52"/>
  <path style="opacity:0.2" transform="translate(0,1090.5197)" d="M 4 20.634766 L 4 21.634766 C 4 22.391766 4.5359414 23 5.203125 23 L 26.796875 23 C 27.464057 23 28 22.391766 28 21.634766 L 28 20.634766 C 28 21.391766 27.464057 22 26.796875 22 L 5.203125 22 C 4.5359414 22 4 21.391766 4 20.634766 z"/>
  <path style="fill:#ffffff;opacity:0.1" transform="translate(0,1090.5197)" d="M 6.8242188 23 L 4 28 L 4.5644531 28 L 6.8242188 24 L 25.175781 24 L 27.435547 28 L 28 28 L 25.175781 23 L 6.8242188 23 z"/>
  <path style="opacity:0.2" transform="translate(0,1090.5197)" d="M 1 25.501953 L 1 26.501953 C 1 27.885253 2.0449605 29 3.3417969 29 L 28.658203 29 C 29.955039 29 31 27.885253 31 26.501953 L 31 25.501953 C 31 26.885253 29.955039 28 28.658203 28 L 3.3417969 28 C 2.0449605 28 1 26.885253 1 25.501953 z"/>
  <path style="opacity:0.1;fill:#ffffff" transform="translate(0,1090.5197)" d="M 3.3417969 4 C 2.0449605 4 1 5.1148469 1 6.4980469 L 1 7.4980469 C 1 6.1148469 2.0449605 5 3.3417969 5 L 28.658203 5 C 29.955039 5 31 6.1148469 31 7.4980469 L 31 6.4980469 C 31 5.1148469 29.955039 4 28.658203 4 L 3.3417969 4 z"/>
  <path style="opacity:0.2" transform="translate(0,1090.5197)" d="M 10 14 A 2 2 0 0 0 8 16 A 2 2 0 0 0 8.0644531 16.496094 A 2 2 0 0 1 10 15 A 2 2 0 0 1 11.935547 16.503906 A 2 2 0 0 0 12 16 A 2 2 0 0 0 10 14 z M 22 14 A 2 2 0 0 0 20 16 A 2 2 0 0 0 20.064453 16.496094 A 2 2 0 0 1 22 15 A 2 2 0 0 1 23.935547 16.503906 A 2 2 0 0 0 24 16 A 2 2 0 0 0 22 14 z"/>
 </g>
</svg>
